!!!OTL: ALS SANCT KATHARINA EINE HELDIN WAR
!!!ARE: Europa, Mitteleuropa, Deutschland, Schlesien
!!!SCT: E2117
!!!YEM: Copyright 1995, estate of Helmut Schaffrath.
**kern
*ICvox
*Ivox
*M4/4
*k[f#]
*G:
{4d
=1
4g
8g
8g
4g
8a
8cc
=2
4b
4a
4g
8r}
{8g
=3
4a
8a
8a
4a
8b
8dd
=4
4cc
4b
4a
8r}
{8dd
=5
8b
8g
8b
8dd
4.cc
8cc
=6
4b
8dd
8b
4a
8r}
{8d
=7
4g
8b
8g
4a
8dd
8cc
=8
4b
4a
4g}
==
!!!AGN: geistlich, Heiligen - Lied, Legende
!!!ONB: ESAC (Essen Associative Code) Database: ERK3
!!!AMT: simple quadruple
!!!AIN: vox
!!!EED: Helmut Schaffrath
!!!EEV: 1.0
*-
